X:044
T: Port Gordon (by Carolan)
N: O'Farrell's Pocket Companion v.1 (Sky ed. p.36-37)
N: "Irish"
M: C
L: 1/8
Q: 120
K: Dm
DE|F2 FG A2 GF|G2 GA c2 AG|FEFG A2 GF|G3F D2 DE|
F2 FG A2 GF|G2 GA c2 AG|A3B A2 G2|A6 DE|F2 FG A2 GF|
G2 GA c2 AG|A2 AB AGFG|A4 f2 DE|F2 FG F2 ED|EDEG A2 GE|
D2 DE FEDC| D6 :|
P:2
de|f3g fg a2|FEFG F2 ED|f3g f>g a2|
GFGA G2 fg|a4 a2 gf|g4 agfe|fgfe defe|dA cA/G/ A3A|
d2 dc defe| dedc A2 AB|c2 cA cded|dcAG G2 AG|F2 FG F2 ED|
EDEG A3c|dedc AGAc|d6 :|
